X:1
T: 009 - Santo
T:Letra: Reginald Heber (1788-1826)
T:Trad.: João Gomes da Rocha (1861-1947)
T:Musica: John Bacchus Dykes (1823-1876)
L:1/4
M:4/4
I:linebreak $
K:Ebmaj
V:1
"Eb"E E G G | "Bb"B2 "Eb"B2 | "Ab"c3/2 c/2 c c | "Eb"B2 G2 | "Bb"B3/2 B/2 B B | "Cm"e2 d B | "Fm"F B c3/2 B/2 | "Bb7"B4 | "Eb"E E G G | "Bb"B2 "Eb"B2 | "Ab"c3/2 c/2 c c | "Eb"B2 B2 | "Cm"e2 "Gm"B B | "Ab"c2 "Eb"G2 | "Ab"A F "Bb7"F3/2 E/2 | "Eb"E4 |]
w: 1.~San-to! San-to! San-to! Deus O-ni-po-ten-te! Ce-do de ma-nhã can-ta-re-mos teu lou-vor. San-to! San-to! San-to! Deus Jeo-vá tri-ú-no, És um só Deus, ex-cel-so Cri-a-dor.
w: 2.~San-to! San-to! San-to! To-dos os re-mi-dos, Jun-tos com os an-jos, pro-cla-mam teu lou-vor. An-tes de for-mar-seo fir-ma-men-toea ter-ra. E-ras, e sem-preés ehás de ser, Se-nhor.
w: 3.~San-to! San-to! San-to! Nós, os pe-ca-do-res, Não po-de-mos ver tu-a gló-ria sem tre-mor. Tu so-men-teés San-to; não há ne-nhum ou-tro, Pu-roe per-fei-to,ex-cel-so Ben-fei-tor.
w: 4.~San-to! San-to! San-to! Deus O-ni-po-ten-te! Tu-as o-bras lou-vam teu no-me com fer-vor. San-to! San-to! San-to! Jus-toe com-pas-si-vo, És um só Deus, su-pre-mo Cri-a-dor.
W: 
W: 
W: 1. Santo! Santo! Santo! Deus Onipotente!
W: Cedo de manhã cantaremos teu louvor.
W: Santo! Santo! Santo! Deus Jeová triúno,
W: És um só Deus, excelso Criador.
W: 
W: 2. Santo! Santo! Santo! Todos os remidos,
W: Juntos com os anjos, proclamam teu louvor.
W: Antes de formar-se o firmamento e a terra.
W: Eras, e sempre és e hás de ser, Senhor.
W: 
W: 3. Santo! Santo! Santo! Nós, os pecadores,
W: Não podemos ver tua glória sem tremor.
W: Tu somente és Santo; não há nenhum outro,
W: Puro e perfeito, excelso Benfeitor.
W: 
W: 4. Santo! Santo! Santo! Deus Onipotente!
W: Tuas obras louvam teu nome com fervor.
W: Santo! Santo! Santo! Justo e compassivo,
W: És um só Deus, supremo Criador.





